dist/img/Logo.svg

<svg width="70" height="91" viewBox="0 0 70 91" fill="none" xmlns="http://www.w3.org/2000/svg">
<path d="M59.3979 57.1507H59.1092V73.2599H54.3725V43.1236H58.9663L64.9775 60.3454H65.2488V43.1236H70V73.2599H65.4062L59.3979 57.1507Z" fill="#383838"/>
<path d="M38.4125 68.955H34.1863L29.5488 43.1236H34.335L36.3913 56.8276L36.4875 57.7848H36.8696L37.0125 56.8276L39.2146 43.1236H42.9479L45.1471 56.8276L45.29 57.7848H45.675L45.7713 56.8276L47.8275 43.1236H52.6138L47.9734 68.955H43.75L41.4633 57.0269L41.1775 56.3369H40.985L40.6992 57.0269L38.4125 68.955Z" fill="#383838"/>
<path d="M27.9358 45.8203C27.7034 45.4066 27.4231 45.0128 27.0988 44.6445C26.7591 44.2546 26.3477 43.9119 25.8796 43.629C25.3607 43.3153 24.7873 43.0695 24.1792 42.9002C23.445 42.7054 22.6775 42.6119 21.9071 42.6232C21.1291 42.6129 20.3542 42.7064 19.6117 42.9002C18.9949 43.0664 18.4132 43.3124 17.8879 43.629C17.4229 43.9084 17.0185 44.2518 16.6921 44.6445C16.3814 45.0165 16.1092 45.4099 15.8784 45.8203C15.3481 46.8165 15.0558 47.8892 15.0179 48.9784V84.6488C15.0538 85.7485 15.346 86.8318 15.8784 87.8386C16.1062 88.2433 16.3787 88.6296 16.6921 88.9925C17.027 89.3799 17.4302 89.7231 17.8879 90.0104C18.4055 90.3373 18.9894 90.5842 19.6117 90.7392C20.3569 90.921 21.1307 91.0087 21.9071 90.9992C22.676 91.0096 23.4422 90.9219 24.1792 90.7392C24.7928 90.5811 25.3684 90.3344 25.8796 90.0104C26.3403 89.7195 26.7506 89.3769 27.0988 88.9925C27.4258 88.6335 27.7064 88.2467 27.9358 87.8386C28.4718 86.8323 28.7689 85.7491 28.8108 84.6488V48.9687C28.767 47.8788 28.4698 46.8063 27.9358 45.8105M23.6454 84.6488C23.6565 85.0141 23.5914 85.3783 23.4529 85.725C23.3634 86.0083 23.1911 86.2687 22.9513 86.483C22.6649 86.6883 22.2996 86.8013 21.9217 86.8013C21.5438 86.8013 21.1785 86.6883 20.8921 86.483C20.6523 86.2687 20.4799 86.0083 20.3904 85.725C20.252 85.3783 20.1869 85.0141 20.198 84.6488V48.9687C20.1918 48.6037 20.2568 48.2402 20.3904 47.8925C20.493 47.6225 20.6642 47.3739 20.8921 47.1637C21.1717 46.9468 21.5396 46.8263 21.9217 46.8263C22.3038 46.8263 22.6716 46.9468 22.9513 47.1637C23.1792 47.3739 23.3503 47.6225 23.4529 47.8925C23.5866 48.2402 23.6516 48.6037 23.6454 48.9687V84.6488Z" fill="#383838"/>
<path d="M55.0813 4.37523H68.1567L67.4071 8.68006H60.2496V17.2752H64.7384V21.597H60.2496V34.5115H68.1567L67.4013 38.8188H55.0813V4.37523Z" fill="#383838"/>
<path d="M29.715 0H23.3975L16.6892 38.8188H21.7234L23.4734 30.2092H29.5663L30.9546 38.8188H36.1142L29.715 0ZM23.9371 25.9019L26.425 7.97318H26.7167L29.1113 25.9019H23.9371Z" fill="#383838"/>
<path d="M15.6917 34.5116L14.9246 38.8188H2.59876V8.68011H7.7671V34.5116H15.6917Z" fill="#383838"/>
<path d="M48.4021 38.8189H53.4275L48.0084 21.6335L51.9896 12.985H46.9992L43.225 21.5971H43.0442V12.985H37.8759V38.8189H43.0442V30.2068L44.4792 27.0705H44.7242L48.4021 38.8189Z" fill="#383838"/>
<path d="M14.1896 43.1236H0V47.5523H5.43957V77.5623H10.6079V47.5523H13.4342L14.1896 43.1236Z" fill="#383838"/>
</svg>

<svg xmlns="http://www.w3.org/2000/svg" width="70" height="91" fill="none"><path fill="#383838" d="M59.398 57.15h-.289v16.11h-4.736V43.124h4.593l6.012 17.221h.27V43.124H70V73.26h-4.594l-6.008-16.11ZM38.413 68.955h-4.227L29.55 43.124h4.786l2.056 13.704.096.957h.383l.143-.957 2.202-13.704h3.733l2.2 13.704.142.957h.385l.096-.957 2.056-13.704h4.787l-4.64 25.831H43.75l-2.287-11.928-.285-.69h-.193l-.286.69-2.286 11.928ZM27.936 45.82a6.88 6.88 0 0 0-.837-1.175 5.135 5.135 0 0 0-1.22-1.016 6.827 6.827 0 0 0-1.7-.729 8.396 8.396 0 0 0-2.272-.277 8.652 8.652 0 0 0-2.295.277 6.736 6.736 0 0 0-1.724.729c-.465.28-.87.623-1.196 1.016a7.8 7.8 0 0 0-.814 1.175 7.243 7.243 0 0 0-.86 3.158v35.67a7.32 7.32 0 0 0 .86 3.19c.228.405.5.792.814 1.155a5.3 5.3 0 0 0 1.196 1.017 5.9 5.9 0 0 0 1.724.73 9.284 9.284 0 0 0 2.295.26 8.955 8.955 0 0 0 2.272-.26 5.952 5.952 0 0 0 2.92-1.747c.327-.36.607-.746.837-1.154a7.367 7.367 0 0 0 .875-3.19v-35.68a7.288 7.288 0 0 0-.875-3.159m-4.29 38.839a2.7 2.7 0 0 1-.193 1.076c-.09.283-.262.544-.502.758a1.776 1.776 0 0 1-1.03.318 1.78 1.78 0 0 1-1.029-.318 1.715 1.715 0 0 1-.502-.758 2.676 2.676 0 0 1-.192-1.076v-35.68a2.859 2.859 0 0 1 .192-1.077c.103-.27.274-.518.502-.728.28-.217.648-.338 1.03-.338s.75.12 1.03.338c.227.21.398.459.5.728.135.348.2.712.193 1.077v35.68ZM55.081 4.375h13.076l-.75 4.305H60.25v8.595h4.488v4.322H60.25v12.914h7.907L67.4 38.82H55.08V4.375ZM29.715 0h-6.317l-6.709 38.819h5.034l1.75-8.61h6.093l1.389 8.61h5.16L29.714 0Zm-5.778 25.902 2.488-17.929h.292l2.394 17.929h-5.174Zm-8.245 8.61-.767 4.307H2.599V8.68h5.168v25.832h7.925Zm32.71 4.307h5.026l-5.42-17.186 3.982-8.648H47l-3.775 8.612h-.18v-8.612h-5.17v25.834h5.17v-8.612l1.434-3.137h.245l3.678 11.749ZM14.19 43.124H0v4.428h5.44v30.01h5.168v-30.01h2.826l.756-4.428Z"/></svg>
